CN4T1/180/aimg/frijol.svg

<svg clip-rule="evenodd" fill-rule="evenodd" stroke-linejoin="round" stroke-miterlimit="2" viewBox="0 0 47 26" xmlns="http://www.w3.org/2000/svg"><g fill-rule="nonzero"><path d="m0 3.967c-.216-.25-.396-.439-.555-.644-1.38-1.782-2.227-3.773-2.54-6.022-.247-1.771.104-3.435.731-5.042.364-.934.894-1.83 1.841-2.355.726-.404 1.506-.677 2.329-.694 1.458-.029 3.128 1.065 3.553 2.62.266.972.334 2 .472 3.006.069.503.082 1.014.148 1.518.063.475.253.866.743 1.074.351.15.668.379 1.007.56.791.422 1.411 1.033 1.821 1.814.797 1.518.382 3.298-1.005 4.542-.794.713-1.676 1.208-2.758 1.532.075.284.15.573.226.862.06-.007.125.006.151-.02.752-.779 1.685-1.165 2.734-1.389.544-.117.997.098 1.486.161 1.611.21 2.939-.565 3.745-2.388-.381-.192-.786-.352-1.144-.584-1.339-.867-1.739-2.214-1.77-3.7-.032-1.588.744-2.884 1.649-4.103 1.127-1.517 2.651-2.502 4.384-3.204.949-.384 1.949-.518 2.94-.728.978-.208 1.895-.021 2.78.192 1.178.283 2.25.901 3.037 1.874.854 1.055 1.276 2.262 1.131 3.641-.104.981-1.235 2.191-2.216 2.329-.691.097-1.386.167-2.076.272-.523.079-1.047.167-1.556.303-.49.131-.855.437-1.013.948-.186.602-.399 1.195-.561 1.802-.041.156.018.386.115.524 1.205 1.728 1.442 3.586.889 5.607-.716 2.617-2.474 4.251-4.838 5.362-1.436.674-2.944 1.149-4.527 1.084-2.605-.107-4.5-1.408-5.664-3.751-.139-.28-.239-1.015-.341-1.259-.596 1.436-2.811 2.933-4.743 3.11-.613.111-1.25.189-1.869.154-.861-.05-3.173.018-6.365-1.605-.899-.479-1.599-1.15-2.251-1.908-1.403-1.63-1.666-3.529-1.218-5.532.186-.836.638-1.634 1.404-2.144.864-.574 1.823-.71 2.845-.573 1.394.187 2.445.927 3.371 1.935.333.362.768.656 1.202.898.561.312 1.54.296 2.276-.079" fill="#231f20" transform="translate(11.9772 11.021812)"/><path d="m0-6.511c.012-1.081-.155-2.106-.594-3.063-.3-.652-.814-1.166-1.476-1.443-.561-.234-1.128-.366-1.805-.267-1.663.24-2.644 1.191-3.209 2.666-.251.653-.464 1.335-.577 2.023-.14.854-.232 1.716-.099 2.6.262 1.757.925 3.356 1.77 4.896.53.966 1.612 2.221 2.693 2.535 3.467 1.436 5.398.081 6.59-1.138.386-.395.724-.963.813-1.497.266-1.59-.556-2.596-1.764-3.377-.155-.101-.446-.15-.597-.073-.958.491-1.787.158-2.574-.371-.614-.413-.802-1.119-.655-1.865.169-.849.664-1.369 1.484-1.626" fill="#bc855c" transform="translate(17.1755 12.208812)"/><path d="m0-4.855c.031 1.471-1.112 2.333-2.535 1.911-.858-.255-1.557-1.556-1.267-2.498.123-.402.019-.631-.223-.904-.662-.746-1.462-1.246-2.437-1.467-1.525-.345-2.888.252-3.568 1.541-.626 1.186-.608 2.469-.279 3.684.641 2.373 2.428 3.715 4.604 4.575 3.574 1.316 6.016.765 6.444.714 1.437-.169 2.403-.591 3.467-1.579 1.164-1.08 1.559-2.621 1.356-4.147-.077-.582-.092-.892-.659-.879-1.022.024-2.151-.094-2.999-.672-.374-.255-.782-.458-1.147-.669-.288.148-.523.269-.757.39" fill="#d1a06f" transform="translate(11.7443 20.635812)"/><path d="m0-7.347c.726 1.347.59 2.023-.593 2.798-1.02.669-2.096.503-2.719-.419-.235-.35-.517-.553-.931-.572-.805-.038-1.592.002-2.341.366-.78.379-1.288 1.016-1.711 1.728-.289.487-.16 1.009-.071 1.55.318 1.924 1.531 3.153 3.134 4.02.962.519 2.043.565 3.159.388 1.156-.183 2.28-.417 3.327-.939 1.391-.694 2.723-1.446 3.587-2.836 1.007-1.617 1.43-3.341 1.029-5.201-.156-.718-.467-1.445-.869-2.061-.971-1.491-3.146-1.511-4.209-.087-.289.387-.516.82-.792 1.265" fill="#bc855c" transform="translate(26.2917 22.556812)"/><path d="m0 9.831c.272-.624.516-1.136.054-1.778-.557-.774-.454-1.807.145-2.336.532-.469 1.739-.901 2.546-.276.368.286.647.688 1.026 1.104.46-.041 1.022-.036 1.561-.149 1.323-.275 2.127-1.268 2.048-2.488-.068-1.051-.444-2.026-1.185-2.744-1.395-1.354-3.089-1.952-5.066-1.739-1.215.131-2.37.409-3.468.942-1.026.498-1.999 1.05-2.788 1.913-.661.723-1.227 1.489-1.678 2.359-.838 1.614-.726 3.191.218 4.683.458.723 1.23 1.112 1.969 1.297 1.422-1.384 2.901-1.715 4.618-.788" fill="#d1a06f" transform="translate(31.095 2.980812)"/><g fill="#eef4d8"><path d="m0-2.502c-.472 1.395.16 2.4 1.19 2.4 1.107.102 1.549-.791 1.271-1.416-.902.062-1.887-.225-2.461-.984" transform="translate(8.5861 17.367812)"/><path d="m0 2.291c.448-.992 1.539-.817 2.276-1.302-.535-.807-1.308-.989-2.051-.514-.598.382-.711 1.074-.225 1.816" transform="translate(31.767 8.486812)"/><path d="m0-2.98c-.786.401-1.128 1.238-.822 1.923.283.633 1.262 1.057 1.907.827-1.09-1.151-.779-.832-1.085-2.75" transform="translate(17.1691 9.323812)"/><path d="m0-2.219c-.753.694-1.498 1.293-2.538 1.35.492.762.836.869 1.663.562 1.02-.378 1.292-.91.875-1.912" transform="translate(25.9089 18.003812)"/></g><path d="m0-17.089c1.166-.106 2.19.202 3.063 1.004.801.737 1.104 1.649 1.104 2.719 0 1.09-.374 2.034-.947 2.93-.208.326-.351.693-.547 1.028-.615 1.052-.552 2.118-.131 3.218.241.629.465 1.272.614 1.928.497 2.18-1.491 4.368-3.449 4.257-.83-.046-1.668-.078-2.413-.414-.578-.261-1.073-.726-1.567-1.146-1.273-1.081-2.11-2.417-2.462-4.079-.681-3.209-.033-6.119 1.903-8.73.749-1.011 1.672-1.867 2.85-2.414.644-.3 1.307-.297 1.982-.301" fill="#231f20" transform="translate(42.115 25.054812)"/><path d="m0-3.299c.682-.973 1.11-1.909 1.172-3.029.122-2.173-1.811-3.408-3.6-3.197-.263.032-.531.096-.791.076-.811-.063-1.432.322-2.012.807-1.554 1.299-2.51 2.986-3.098 4.893-.162.527-.317 1.084-.317 1.627.003 1.11.052 2.229.198 3.329.135 1.015.515 1.966 1.264 2.72.359.36.744.698 1.079 1.08.808.92 1.887 1.246 3.035 1.333 1.274.097 2.339-.341 2.967-1.534.526-.999.379-2.018.014-3.024-.098-.27-.331-.361-.628-.402-.832-.114-1.568-.922-1.671-1.768-.098-.815.158-1.536.626-2.181.429-.591 1.012-.887 1.762-.73" fill="#c48363" transform="translate(44.519 18.089812)"/><path d="m.088.03c-.116.581-.316 1.142-.316 1.703.002.559.203 1.119.316 1.676-.643-.134-1.2-.937-1.235-1.786-.033-.789.383-1.34 1.235-1.593" fill="#eef4d8" transform="matrix(.998611 .0526831 .0526831 -.998611 43.818 18.843812)"/></g></svg>

<?xml version="1.0" encoding="UTF-8" standalone="no"?>
<!DOCTYPE svg PUBLIC "-//W3C//DTD SVG 1.1//EN" "http://www.w3.org/Graphics/SVG/1.1/DTD/svg11.dtd">
<svg width="100%" height="100%" viewBox="0 0 47 26" version="1.1" xmlns="http://www.w3.org/2000/svg" xmlns:xlink="http://www.w3.org/1999/xlink" xml:space="preserve" xmlns:serif="http://www.serif.com/" style="fill-rule:evenodd;clip-rule:evenodd;stroke-linejoin:round;stroke-miterlimit:2;">
    <g transform="matrix(1,0,0,1,-247,-199)">
        <g transform="matrix(1,0,0,1,176.918,-0.242188)">
            <g transform="matrix(1,0,0,1,82.0592,210.264)">
                <path d="M0,3.967C-0.216,3.717 -0.396,3.528 -0.555,3.323C-1.935,1.541 -2.782,-0.45 -3.095,-2.699C-3.342,-4.47 -2.991,-6.134 -2.364,-7.741C-2,-8.675 -1.47,-9.571 -0.523,-10.096C0.203,-10.5 0.983,-10.773 1.806,-10.79C3.264,-10.819 4.934,-9.725 5.359,-8.17C5.625,-7.198 5.693,-6.17 5.831,-5.164C5.9,-4.661 5.913,-4.15 5.979,-3.646C6.042,-3.171 6.232,-2.78 6.722,-2.572C7.073,-2.422 7.39,-2.193 7.729,-2.012C8.52,-1.59 9.14,-0.979 9.55,-0.198C10.347,1.32 9.932,3.1 8.545,4.344C7.751,5.057 6.869,5.552 5.787,5.876C5.862,6.16 5.937,6.449 6.013,6.738C6.073,6.731 6.138,6.744 6.164,6.718C6.916,5.939 7.849,5.553 8.898,5.329C9.442,5.212 9.895,5.427 10.384,5.49C11.995,5.7 13.323,4.925 14.129,3.102C13.748,2.91 13.343,2.75 12.985,2.518C11.646,1.651 11.246,0.304 11.215,-1.182C11.183,-2.77 11.959,-4.066 12.864,-5.285C13.991,-6.802 15.515,-7.787 17.248,-8.489C18.197,-8.873 19.197,-9.007 20.188,-9.217C21.166,-9.425 22.083,-9.238 22.968,-9.025C24.146,-8.742 25.218,-8.124 26.005,-7.151C26.859,-6.096 27.281,-4.889 27.136,-3.51C27.032,-2.529 25.901,-1.319 24.92,-1.181C24.229,-1.084 23.534,-1.014 22.844,-0.909C22.321,-0.83 21.797,-0.742 21.288,-0.606C20.798,-0.475 20.433,-0.169 20.275,0.342C20.089,0.944 19.876,1.537 19.714,2.144C19.673,2.3 19.732,2.53 19.829,2.668C21.034,4.396 21.271,6.254 20.718,8.275C20.002,10.892 18.244,12.526 15.88,13.637C14.444,14.311 12.936,14.786 11.353,14.721C8.748,14.614 6.853,13.313 5.689,10.97C5.55,10.69 5.45,9.955 5.348,9.711C4.752,11.147 2.537,12.644 0.605,12.821C-0.008,12.932 -0.645,13.01 -1.264,12.975C-2.125,12.925 -4.437,12.993 -7.629,11.37C-8.528,10.891 -9.228,10.22 -9.88,9.462C-11.283,7.832 -11.546,5.933 -11.098,3.93C-10.912,3.094 -10.46,2.296 -9.694,1.786C-8.83,1.212 -7.871,1.076 -6.849,1.213C-5.455,1.4 -4.404,2.14 -3.478,3.148C-3.145,3.51 -2.71,3.804 -2.276,4.046C-1.715,4.358 -0.736,4.342 0,3.967" style="fill:rgb(35,31,32);fill-rule:nonzero;"/>
            </g>
            <g transform="matrix(1,0,0,1,87.2575,211.451)">
                <path d="M0,-6.511C0.012,-7.592 -0.155,-8.617 -0.594,-9.574C-0.894,-10.226 -1.408,-10.74 -2.07,-11.017C-2.631,-11.251 -3.198,-11.383 -3.875,-11.284C-5.538,-11.044 -6.519,-10.093 -7.084,-8.618C-7.335,-7.965 -7.548,-7.283 -7.661,-6.595C-7.801,-5.741 -7.893,-4.879 -7.76,-3.995C-7.498,-2.238 -6.835,-0.639 -5.99,0.901C-5.46,1.867 -4.378,3.122 -3.297,3.436C0.17,4.872 2.101,3.517 3.293,2.298C3.679,1.903 4.017,1.335 4.106,0.801C4.372,-0.789 3.55,-1.795 2.342,-2.576C2.187,-2.677 1.896,-2.726 1.745,-2.649C0.787,-2.158 -0.042,-2.491 -0.829,-3.02C-1.443,-3.433 -1.631,-4.139 -1.484,-4.885C-1.315,-5.734 -0.82,-6.254 0,-6.511" style="fill:rgb(188,133,92);fill-rule:nonzero;"/>
            </g>
            <g transform="matrix(1,0,0,1,81.8263,219.878)">
                <path d="M0,-4.855C0.031,-3.384 -1.112,-2.522 -2.535,-2.944C-3.393,-3.199 -4.092,-4.5 -3.802,-5.442C-3.679,-5.844 -3.783,-6.073 -4.025,-6.346C-4.687,-7.092 -5.487,-7.592 -6.462,-7.813C-7.987,-8.158 -9.35,-7.561 -10.03,-6.272C-10.656,-5.086 -10.638,-3.803 -10.309,-2.588C-9.668,-0.215 -7.881,1.127 -5.705,1.987C-2.131,3.303 0.311,2.752 0.739,2.701C2.176,2.532 3.142,2.11 4.206,1.122C5.37,0.042 5.765,-1.499 5.562,-3.025C5.485,-3.607 5.47,-3.917 4.903,-3.904C3.881,-3.88 2.752,-3.998 1.904,-4.576C1.53,-4.831 1.122,-5.034 0.757,-5.245C0.469,-5.097 0.234,-4.976 0,-4.855" style="fill:rgb(209,160,111);fill-rule:nonzero;"/>
            </g>
            <g transform="matrix(1,0,0,1,96.3737,221.799)">
                <path d="M0,-7.347C0.726,-6 0.59,-5.324 -0.593,-4.549C-1.613,-3.88 -2.689,-4.046 -3.312,-4.968C-3.547,-5.318 -3.829,-5.521 -4.243,-5.54C-5.048,-5.578 -5.835,-5.538 -6.584,-5.174C-7.364,-4.795 -7.872,-4.158 -8.295,-3.446C-8.584,-2.959 -8.455,-2.437 -8.366,-1.896C-8.048,0.028 -6.835,1.257 -5.232,2.124C-4.27,2.643 -3.189,2.689 -2.073,2.512C-0.917,2.329 0.207,2.095 1.254,1.573C2.645,0.879 3.977,0.127 4.841,-1.263C5.848,-2.88 6.271,-4.604 5.87,-6.464C5.714,-7.182 5.403,-7.909 5.001,-8.525C4.03,-10.016 1.855,-10.036 0.792,-8.612C0.503,-8.225 0.276,-7.792 0,-7.347" style="fill:rgb(188,133,92);fill-rule:nonzero;"/>
            </g>
            <g transform="matrix(1,0,0,1,101.177,202.223)">
                <path d="M0,9.831C0.272,9.207 0.516,8.695 0.054,8.053C-0.503,7.279 -0.4,6.246 0.199,5.717C0.731,5.248 1.938,4.816 2.745,5.441C3.113,5.727 3.392,6.129 3.771,6.545C4.231,6.504 4.793,6.509 5.332,6.396C6.655,6.121 7.459,5.128 7.38,3.908C7.312,2.857 6.936,1.882 6.195,1.164C4.8,-0.19 3.106,-0.788 1.129,-0.575C-0.086,-0.444 -1.241,-0.166 -2.339,0.367C-3.365,0.865 -4.338,1.417 -5.127,2.28C-5.788,3.003 -6.354,3.769 -6.805,4.639C-7.643,6.253 -7.531,7.83 -6.587,9.322C-6.129,10.045 -5.357,10.434 -4.618,10.619C-3.196,9.235 -1.717,8.904 0,9.831" style="fill:rgb(209,160,111);fill-rule:nonzero;"/>
            </g>
            <g transform="matrix(1,0,0,1,78.6681,216.61)">
                <path d="M0,-2.502C-0.472,-1.107 0.16,-0.102 1.19,-0.102C2.297,0 2.739,-0.893 2.461,-1.518C1.559,-1.456 0.574,-1.743 0,-2.502" style="fill:rgb(238,244,216);fill-rule:nonzero;"/>
            </g>
            <g transform="matrix(1,0,0,1,101.849,207.729)">
                <path d="M0,2.291C0.448,1.299 1.539,1.474 2.276,0.989C1.741,0.182 0.968,0 0.225,0.475C-0.373,0.857 -0.486,1.549 0,2.291" style="fill:rgb(238,244,216);fill-rule:nonzero;"/>
            </g>
            <g transform="matrix(1,0,0,1,87.2511,208.566)">
                <path d="M0,-2.98C-0.786,-2.579 -1.128,-1.742 -0.822,-1.057C-0.539,-0.424 0.44,0 1.085,-0.23C-0.005,-1.381 0.306,-1.062 0,-2.98" style="fill:rgb(238,244,216);fill-rule:nonzero;"/>
            </g>
            <g transform="matrix(1,0,0,1,95.9909,217.246)">
                <path d="M0,-2.219C-0.753,-1.525 -1.498,-0.926 -2.538,-0.869C-2.046,-0.107 -1.702,0 -0.875,-0.307C0.145,-0.685 0.417,-1.217 0,-2.219" style="fill:rgb(238,244,216);fill-rule:nonzero;"/>
            </g>
            <g transform="matrix(1,0,0,1,112.197,224.297)">
                <path d="M0,-17.089C1.166,-17.195 2.19,-16.887 3.063,-16.085C3.864,-15.348 4.167,-14.436 4.167,-13.366C4.167,-12.276 3.793,-11.332 3.22,-10.436C3.012,-10.11 2.869,-9.743 2.673,-9.408C2.058,-8.356 2.121,-7.29 2.542,-6.19C2.783,-5.561 3.007,-4.918 3.156,-4.262C3.653,-2.082 1.665,0.106 -0.293,-0.005C-1.123,-0.051 -1.961,-0.083 -2.706,-0.419C-3.284,-0.68 -3.779,-1.145 -4.273,-1.565C-5.546,-2.646 -6.383,-3.982 -6.735,-5.644C-7.416,-8.853 -6.768,-11.763 -4.832,-14.374C-4.083,-15.385 -3.16,-16.241 -1.982,-16.788C-1.338,-17.088 -0.675,-17.085 0,-17.089" style="fill:rgb(35,31,32);fill-rule:nonzero;"/>
            </g>
            <g transform="matrix(1,0,0,1,114.601,217.332)">
                <path d="M0,-3.299C0.682,-4.272 1.11,-5.208 1.172,-6.328C1.294,-8.501 -0.639,-9.736 -2.428,-9.525C-2.691,-9.493 -2.959,-9.429 -3.219,-9.449C-4.03,-9.512 -4.651,-9.127 -5.231,-8.642C-6.785,-7.343 -7.741,-5.656 -8.329,-3.749C-8.491,-3.222 -8.646,-2.665 -8.646,-2.122C-8.643,-1.012 -8.594,0.107 -8.448,1.207C-8.313,2.222 -7.933,3.173 -7.184,3.927C-6.825,4.287 -6.44,4.625 -6.105,5.007C-5.297,5.927 -4.218,6.253 -3.07,6.34C-1.796,6.437 -0.731,5.999 -0.103,4.806C0.423,3.807 0.276,2.788 -0.089,1.782C-0.187,1.512 -0.42,1.421 -0.717,1.38C-1.549,1.266 -2.285,0.458 -2.388,-0.388C-2.486,-1.203 -2.23,-1.924 -1.762,-2.569C-1.333,-3.16 -0.75,-3.456 0,-3.299" style="fill:rgb(196,131,99);fill-rule:nonzero;"/>
            </g>
            <g transform="matrix(0.998611,0.0526831,0.0526831,-0.998611,113.9,218.086)">
                <path d="M0.088,0.03C-0.028,0.611 -0.228,1.172 -0.228,1.733C-0.226,2.292 -0.025,2.852 0.088,3.409C-0.555,3.275 -1.112,2.472 -1.147,1.623C-1.18,0.834 -0.764,0.283 0.088,0.03" style="fill:rgb(238,244,216);fill-rule:nonzero;"/>
            </g>
        </g>
    </g>
</svg>
